public/assets/img/program3.svg

<svg width="72" height="67" viewBox="0 0 72 67" fill="none" xmlns="http://www.w3.org/2000/svg">
<path d="M36.0001 33.0042C35.4717 33.0042 34.9722 33.1306 34.5287 33.3539L29.9823 28.7639C29.5705 28.3481 28.9027 28.3479 28.4908 28.7639C28.0789 29.1798 28.0789 29.8538 28.4908 30.2697L33.0372 34.8597C32.816 35.3075 32.6909 35.8118 32.6909 36.3451C32.6909 38.1874 34.1755 39.6861 36.0001 39.6861C37.4561 39.6861 38.6945 38.7314 39.136 37.4099H47.2729C47.8553 37.4099 48.3276 36.9333 48.3276 36.3451C48.3276 35.7571 47.8553 35.2803 47.2729 35.2803H39.136C38.6945 33.9589 37.4561 33.0042 36.0001 33.0042ZM36.0001 37.5565C35.3384 37.5565 34.8003 37.0131 34.8003 36.3451C34.8003 35.6773 35.3386 35.1338 36.0001 35.1338C36.6616 35.1338 37.1999 35.6773 37.1999 36.3451C37.1999 37.0131 36.6617 37.5565 36.0001 37.5565Z" fill="#90A1AE"/>
<path d="M21.3153 35.3344C21.5501 31.75 23.067 28.3753 25.5865 25.8317C28.1059 23.2882 31.4486 21.7567 34.999 21.5196C38.5145 21.2849 41.9975 22.3253 44.8063 24.4495C45.2725 24.802 45.9336 24.7063 46.2827 24.2357C46.6319 23.765 46.5371 23.0976 46.0709 22.7451C42.8592 20.3162 38.877 19.1261 34.8597 19.3947C30.799 19.666 26.976 21.4172 24.095 24.326C21.2139 27.2346 19.4793 31.0943 19.2105 35.1937C18.9448 39.2502 20.1233 43.2699 22.5293 46.5124C22.7364 46.7917 23.0534 46.9389 23.3742 46.9389C23.5941 46.9389 23.816 46.8698 24.0057 46.7262C24.4719 46.3737 24.5667 45.7063 24.2175 45.2355C22.1133 42.4 21.0827 38.8836 21.3153 35.3344Z" fill="#90A1AE"/>
<path d="M37.0548 26.1026V24.9644C37.0548 24.3764 36.5825 23.8996 36.0001 23.8996C35.4176 23.8996 34.9454 24.3764 34.9454 24.9644V26.1026C34.9454 26.6907 35.4176 27.1674 36.0001 27.1674C36.5825 27.1674 37.0548 26.6905 37.0548 26.1026Z" fill="#90A1AE"/>
<path d="M36.0001 45.5231C35.4176 45.5231 34.9454 45.9999 34.9454 46.5879V47.726C34.9454 48.3141 35.4176 48.7908 36.0001 48.7908C36.5825 48.7908 37.0548 48.3141 37.0548 47.726V46.5879C37.0548 45.9998 36.5825 45.5231 36.0001 45.5231Z" fill="#90A1AE"/>
<path d="M26.9094 36.3451C26.9094 35.7571 26.4371 35.2803 25.8547 35.2803H24.7274C24.1449 35.2803 23.6727 35.7571 23.6727 36.3451C23.6727 36.9333 24.1449 37.4099 24.7274 37.4099H25.8547C26.4371 37.4099 26.9094 36.9333 26.9094 36.3451Z" fill="#90A1AE"/>
<path d="M68.6909 39.8326H57.0659C57.2509 38.6837 57.3457 37.5157 57.3457 36.3451C57.3457 24.4624 47.7701 14.795 36.0001 14.795C24.23 14.795 14.6544 24.4624 14.6544 36.3451C14.6544 48.228 24.23 57.8954 36.0001 57.8954C37.1597 57.8954 38.3166 57.7997 39.4544 57.6129V63.6591C39.4544 65.5013 40.939 67 42.7636 67H68.6908C70.5156 67 72 65.5012 72 63.6591V43.1736C72.0001 41.3314 70.5156 39.8326 68.6909 39.8326ZM69.8908 43.1736V44.3849H41.5638V43.1736C41.5638 42.5056 42.1021 41.9622 42.7636 41.9622H68.6908C69.3524 41.9622 69.8908 42.5058 69.8908 43.1736ZM36.0001 55.7658C25.3931 55.7658 16.7638 47.0538 16.7638 36.3451C16.7638 25.6367 25.3931 16.9246 36.0001 16.9246C46.607 16.9246 55.2363 25.6367 55.2363 36.3451C55.2363 37.5178 55.1306 38.687 54.9251 39.8326H52.4732C53.4453 35.089 52.3635 30.0762 49.471 26.1779C49.1218 25.7072 48.4607 25.6115 47.9946 25.9641C47.5284 26.3166 47.4336 26.9841 47.7828 27.4548C50.4009 30.9834 51.3229 35.5565 50.3125 39.8327H42.7637C40.939 39.8327 39.4545 41.3315 39.4545 43.1738V50.7949C35.2188 51.815 30.6892 50.8842 27.194 48.2409C26.7277 47.8883 26.0667 47.9841 25.7176 48.4548C25.3684 48.9254 25.4632 49.5928 25.9293 49.9455C28.8642 52.1649 32.4363 53.3291 36.0449 53.3291C37.1841 53.3291 38.327 53.2107 39.4545 52.9752V55.4519C38.3198 55.659 37.1616 55.7658 36.0001 55.7658ZM68.6909 64.8704H42.7637C42.1021 64.8704 41.5639 64.3269 41.5639 63.6591V46.5145H69.8908V63.6589C69.8908 64.3269 69.3524 64.8704 68.6909 64.8704Z" fill="#90A1AE"/>
<path d="M39.3818 12.3724H64.1818C64.8434 12.3724 65.3816 12.9159 65.3816 13.5837V14.795H50.6545C50.072 14.795 49.5998 15.2718 49.5998 15.8598C49.5998 16.4479 50.072 16.9246 50.6545 16.9246H65.3816V31.7929C65.3816 32.4609 64.8433 33.0042 64.1818 33.0042H60.8C60.2176 33.0042 59.7454 33.481 59.7454 34.069C59.7454 34.6572 60.2176 35.1338 60.8 35.1338H64.1818C66.0066 35.1338 67.491 33.6352 67.491 31.7929V13.5837C67.491 11.7415 66.0064 10.2428 64.1818 10.2428H39.3818C38.7994 10.2428 38.3271 10.7195 38.3271 11.3076C38.3271 11.8957 38.7994 12.3724 39.3818 12.3724Z" fill="#90A1AE"/>
<path d="M64.1818 50.0754H47.2727C46.6903 50.0754 46.218 50.5521 46.218 51.1402C46.218 51.7282 46.6903 52.205 47.2727 52.205H64.1818C64.7643 52.205 65.2365 51.7282 65.2365 51.1402C65.2365 50.5521 64.7643 50.0754 64.1818 50.0754Z" fill="#90A1AE"/>
<path d="M64.1818 59.18H47.2727C46.6903 59.18 46.218 59.6567 46.218 60.2448C46.218 60.833 46.6903 61.3096 47.2727 61.3096H64.1818C64.7643 61.3096 65.2365 60.833 65.2365 60.2448C65.2365 59.6567 64.7643 59.18 64.1818 59.18Z" fill="#90A1AE"/>
<path d="M60.8 56.7572C61.3825 56.7572 61.8547 56.2805 61.8547 55.6924C61.8547 55.1044 61.3825 54.6276 60.8 54.6276H50.6545C50.072 54.6276 49.5998 55.1044 49.5998 55.6924C49.5998 56.2805 50.072 56.7572 50.6545 56.7572H60.8Z" fill="#90A1AE"/>
<path d="M25.7821 11.3076C25.7821 10.7195 25.3099 10.2428 24.7274 10.2428H7.81834C7.23587 10.2428 6.76365 10.7195 6.76365 11.3076C6.76365 11.8957 7.23587 12.3724 7.81834 12.3724H24.7274C25.3099 12.3724 25.7821 11.8957 25.7821 11.3076Z" fill="#90A1AE"/>
<path d="M7.81834 19.3473C7.23587 19.3473 6.76365 19.824 6.76365 20.4121C6.76365 21.0001 7.23587 21.4769 7.81834 21.4769H16.8365C17.419 21.4769 17.8912 21.0001 17.8912 20.4121C17.8912 19.824 17.419 19.3473 16.8365 19.3473H7.81834Z" fill="#90A1AE"/>
<path d="M22.4003 15.8598C22.4003 15.2718 21.9281 14.795 21.3457 14.795H11.2001C10.6176 14.795 10.1454 15.2718 10.1454 15.8598C10.1454 16.4479 10.6176 16.9246 11.2001 16.9246H21.3457C21.9281 16.9246 22.4003 16.4479 22.4003 15.8598Z" fill="#90A1AE"/>
<path d="M14.5093 26.1026C14.5093 25.5144 14.0371 25.0378 13.4546 25.0378H3.30919C2.64755 25.0378 2.10938 24.4944 2.10938 23.8264V6.68183H30.4364V11.3075C30.4364 11.8955 30.9086 12.3723 31.4911 12.3723C32.0735 12.3723 32.5458 11.8955 32.5458 11.3075V3.34091C32.5458 1.49867 31.0612 0 29.2366 0H3.30919C1.48458 0 0 1.49881 0 3.34091V23.8264C0 25.6686 1.48458 27.1674 3.30919 27.1674H13.4546C14.0371 27.1674 14.5093 26.6905 14.5093 26.1026ZM3.30919 2.1296H29.2364C29.8981 2.1296 30.4362 2.67307 30.4362 3.34091V4.55223H2.10938V3.34091C2.10938 2.67307 2.64769 2.1296 3.30919 2.1296Z" fill="#90A1AE"/>
<path d="M61.8547 21.5503C61.8547 20.9622 61.3825 20.4855 60.8 20.4855H56.291C55.7086 20.4855 55.2363 20.9622 55.2363 21.5503C55.2363 22.1383 55.7086 22.6151 56.291 22.6151H60.8C61.3825 22.6151 61.8547 22.1383 61.8547 21.5503Z" fill="#90A1AE"/>
<path d="M59.1855 27.1674H60.8C61.3825 27.1674 61.8547 26.6907 61.8547 26.1026C61.8547 25.5144 61.3825 25.0378 60.8 25.0378H59.1855C58.6031 25.0378 58.1308 25.5144 58.1308 26.1026C58.1308 26.6905 58.6029 27.1674 59.1855 27.1674Z" fill="#90A1AE"/>
<path d="M32.6183 60.3182H7.81834C7.1567 60.3182 6.61853 59.7747 6.61853 59.1067V44.2384H12.3275C12.91 44.2384 13.3822 43.7617 13.3822 43.1736C13.3822 42.5856 12.91 42.1088 12.3275 42.1088H6.61839V40.8974C6.61839 40.2295 7.1567 39.6861 7.8182 39.6861H11.2C11.7824 39.6861 12.2546 39.2095 12.2546 38.6213C12.2546 38.0332 11.7824 37.5565 11.2 37.5565H7.81834C5.99359 37.5565 4.50915 39.0553 4.50915 40.8974V59.1066C4.50915 60.9488 5.99373 62.4476 7.81834 62.4476H32.6183C33.2008 62.4476 33.673 61.9709 33.673 61.3828C33.673 60.7948 33.2008 60.3182 32.6183 60.3182Z" fill="#90A1AE"/>
<path d="M10.1454 54.5543C10.1454 55.1424 10.6176 55.6191 11.2001 55.6191H17.9638C18.5462 55.6191 19.0184 55.1424 19.0184 54.5543C19.0184 53.9663 18.5462 53.4895 17.9638 53.4895H11.2001C10.6176 53.4895 10.1454 53.9663 10.1454 54.5543Z" fill="#90A1AE"/>
<path d="M14.5819 48.9373H11.2001C10.6176 48.9373 10.1454 49.4141 10.1454 50.0021C10.1454 50.5902 10.6176 51.0669 11.2001 51.0669H14.5819C15.1643 51.0669 15.6365 50.5902 15.6365 50.0021C15.6365 49.4141 15.1643 48.9373 14.5819 48.9373Z" fill="#90A1AE"/>
</svg>

<svg width="72" height="67" fill="none" xmlns="http://www.w3.org/2000/svg"><path d="M36 33.004c-.528 0-1.028.127-1.471.35l-4.547-4.59a1.047 1.047 0 0 0-1.491 0 1.072 1.072 0 0 0 0 1.506l4.546 4.59a3.345 3.345 0 0 0-.346 1.485c0 1.842 1.484 3.341 3.31 3.341 1.455 0 2.694-.955 3.135-2.276h8.137a1.06 1.06 0 0 0 1.055-1.065 1.06 1.06 0 0 0-1.055-1.065h-8.137c-.442-1.321-1.68-2.276-3.136-2.276Zm0 4.553c-.662 0-1.2-.544-1.2-1.212 0-.668.539-1.211 1.2-1.211.662 0 1.2.543 1.2 1.211s-.538 1.212-1.2 1.212Z" fill="#90A1AE"/><path d="M21.315 35.334a14.882 14.882 0 0 1 4.271-9.502A14.617 14.617 0 0 1 35 21.52a14.644 14.644 0 0 1 9.807 2.93 1.048 1.048 0 0 0 1.477-.214c.349-.471.254-1.138-.212-1.49a16.74 16.74 0 0 0-11.211-3.351 16.717 16.717 0 0 0-10.765 4.931 17.022 17.022 0 0 0-4.884 10.868 17.13 17.13 0 0 0 3.318 11.318 1.05 1.05 0 0 0 1.477.214c.466-.352.56-1.02.212-1.49a14.982 14.982 0 0 1-2.903-9.902Z" fill="#90A1AE"/><path d="M37.055 26.103v-1.139A1.06 1.06 0 0 0 36 23.9a1.06 1.06 0 0 0-1.055 1.064v1.139A1.06 1.06 0 0 0 36 27.167a1.06 1.06 0 0 0 1.055-1.064ZM36 45.523a1.06 1.06 0 0 0-1.055 1.065v1.138A1.06 1.06 0 0 0 36 48.791a1.06 1.06 0 0 0 1.055-1.065v-1.138A1.06 1.06 0 0 0 36 45.523ZM26.91 36.345a1.06 1.06 0 0 0-1.055-1.065h-1.128a1.06 1.06 0 0 0-1.054 1.065 1.06 1.06 0 0 0 1.054 1.065h1.128a1.06 1.06 0 0 0 1.054-1.065Z" fill="#90A1AE"/><path d="M68.69 39.833H57.067c.185-1.15.28-2.317.28-3.488 0-11.883-9.576-21.55-21.346-21.55s-21.346 9.667-21.346 21.55c0 11.883 9.576 21.55 21.346 21.55 1.16 0 2.317-.095 3.454-.282v6.046c0 1.842 1.485 3.341 3.31 3.341H68.69C70.516 67 72 65.501 72 63.66V43.173c0-1.843-1.484-3.341-3.31-3.341Zm1.2 3.34v1.212H41.565v-1.211c0-.668.538-1.212 1.2-1.212H68.69c.661 0 1.2.544 1.2 1.212ZM36 55.767c-10.607 0-19.236-8.712-19.236-19.42 0-10.71 8.63-19.421 19.236-19.421 10.607 0 19.236 8.712 19.236 19.42 0 1.173-.105 2.342-.31 3.488h-2.453c.972-4.744-.11-9.757-3.002-13.655a1.048 1.048 0 0 0-1.476-.214 1.072 1.072 0 0 0-.212 1.49c2.618 3.53 3.54 8.102 2.53 12.379h-7.55c-1.824 0-3.308 1.498-3.308 3.34v7.622a14.69 14.69 0 0 1-12.261-2.554 1.048 1.048 0 0 0-1.476.214c-.35.47-.255 1.138.211 1.49a16.792 16.792 0 0 0 10.116 3.384c1.14 0 2.282-.118 3.41-.354v2.477a19.258 19.258 0 0 1-3.455.314Zm32.69 9.104H42.765c-.662 0-1.2-.543-1.2-1.21V46.514H69.89v17.144c0 .668-.539 1.211-1.2 1.211Z" fill="#90A1AE"/><path d="M39.382 12.372h24.8c.661 0 1.2.544 1.2 1.212v1.211H50.654A1.06 1.06 0 0 0 49.6 15.86a1.06 1.06 0 0 0 1.054 1.065h14.728v14.868c0 .668-.539 1.211-1.2 1.211H60.8a1.06 1.06 0 0 0-1.055 1.065 1.06 1.06 0 0 0 1.055 1.065h3.382c1.825 0 3.309-1.499 3.309-3.341v-18.21c0-1.841-1.485-3.34-3.31-3.34h-24.8a1.06 1.06 0 0 0-1.054 1.065 1.06 1.06 0 0 0 1.055 1.064ZM64.182 50.075h-16.91a1.06 1.06 0 0 0-1.054 1.065 1.06 1.06 0 0 0 1.055 1.065h16.909a1.06 1.06 0 0 0 1.055-1.065 1.06 1.06 0 0 0-1.055-1.065ZM64.182 59.18h-16.91a1.06 1.06 0 0 0-1.054 1.065 1.06 1.06 0 0 0 1.055 1.065h16.909a1.06 1.06 0 0 0 1.055-1.065 1.06 1.06 0 0 0-1.055-1.065ZM60.8 56.757a1.06 1.06 0 0 0 1.055-1.065 1.06 1.06 0 0 0-1.055-1.064H50.655a1.06 1.06 0 0 0-1.055 1.064 1.06 1.06 0 0 0 1.054 1.065H60.8ZM25.782 11.308a1.06 1.06 0 0 0-1.055-1.065H7.818a1.06 1.06 0 0 0-1.054 1.065 1.06 1.06 0 0 0 1.054 1.064h16.91a1.06 1.06 0 0 0 1.054-1.064ZM7.818 19.347a1.06 1.06 0 0 0-1.054 1.065 1.06 1.06 0 0 0 1.054 1.065h9.019a1.06 1.06 0 0 0 1.054-1.065 1.06 1.06 0 0 0-1.054-1.065H7.818ZM22.4 15.86a1.06 1.06 0 0 0-1.054-1.065H11.2a1.06 1.06 0 0 0-1.055 1.065 1.06 1.06 0 0 0 1.055 1.065h10.146A1.06 1.06 0 0 0 22.4 15.86Z" fill="#90A1AE"/><path d="M14.51 26.103a1.06 1.06 0 0 0-1.055-1.065H3.309c-.661 0-1.2-.544-1.2-1.212V6.682h28.327v4.625a1.06 1.06 0 0 0 1.055 1.065 1.06 1.06 0 0 0 1.055-1.065V3.341C32.546 1.499 31.06 0 29.236 0H3.31C1.485 0 0 1.499 0 3.34v20.486c0 1.843 1.485 3.341 3.31 3.341h10.145a1.06 1.06 0 0 0 1.054-1.064ZM3.31 2.13h25.926c.662 0 1.2.543 1.2 1.21v1.212H2.11V3.341c0-.668.539-1.211 1.2-1.211ZM61.855 21.55a1.06 1.06 0 0 0-1.055-1.065h-4.509a1.06 1.06 0 0 0-1.055 1.065 1.06 1.06 0 0 0 1.055 1.065H60.8a1.06 1.06 0 0 0 1.055-1.065ZM59.185 27.167H60.8a1.06 1.06 0 0 0 1.055-1.064 1.06 1.06 0 0 0-1.055-1.065h-1.614a1.06 1.06 0 0 0-1.055 1.065 1.06 1.06 0 0 0 1.054 1.064ZM32.618 60.318h-24.8c-.661 0-1.2-.543-1.2-1.211V44.238h5.71a1.06 1.06 0 0 0 1.054-1.064 1.06 1.06 0 0 0-1.054-1.065h-5.71v-1.212c0-.667.539-1.21 1.2-1.21H11.2a1.06 1.06 0 0 0 1.055-1.066 1.06 1.06 0 0 0-1.055-1.065H7.818c-1.824 0-3.309 1.5-3.309 3.341v18.21c0 1.842 1.485 3.34 3.31 3.34h24.8a1.06 1.06 0 0 0 1.054-1.064 1.06 1.06 0 0 0-1.055-1.065Z" fill="#90A1AE"/><path d="M10.145 54.554A1.06 1.06 0 0 0 11.2 55.62h6.764a1.06 1.06 0 0 0 1.054-1.065 1.06 1.06 0 0 0-1.054-1.065H11.2a1.06 1.06 0 0 0-1.055 1.065ZM14.582 48.937H11.2a1.06 1.06 0 0 0-1.055 1.065 1.06 1.06 0 0 0 1.055 1.065h3.382a1.06 1.06 0 0 0 1.054-1.065 1.06 1.06 0 0 0-1.054-1.065Z" fill="#90A1AE"/></svg>
